logos/rackspace-icon.svg

<?xml version="1.0" encoding="UTF-8"?>
<svg width="256px" height="256px" viewBox="0 0 256 256" version="1.1" xmlns="http://www.w3.org/2000/svg" preserveAspectRatio="xMidYMid">
    <title>rackspace</title>
    <g>
        <rect fill="#EA0000" x="0" y="0" width="256" height="256"></rect>
        <path d="M128.453406,88.3054695 L134.618464,55.8576704 L96.5284559,55.8576704 L68.2010883,204.8 L111.456026,204.8 L123.136179,143.38926 C130.023152,107.17719 150.798593,92.6861264 180.365328,97.1603201 L188.812453,52.7343687 C163.13409,50.3675434 138.821451,64.6951648 128.451607,88.3054695 L128.453406,88.3054695 Z" fill="#FFFFFF"></path>
    </g>
</svg>

<svg preserveAspectRatio="xMidYMid" viewBox="0 0 256 256" xmlns="http://www.w3.org/2000/svg">
  <path fill="#EA0000" d="M0 0h256v256H0z"/>
  <path fill="#FFF" d="m128.453 88.305 6.165-32.447h-38.09L68.201 204.8h43.255l11.68-61.41c6.887-36.213 27.663-50.704 57.23-46.23l8.446-44.426c-25.678-2.366-49.99 11.961-60.36 35.571h.001Z"/>
</svg>
